src/assets/svgs/refactor/info.svg

<svg fill="none" height="20" viewBox="0 0 20 20" width="20" xmlns="http://www.w3.org/2000/svg"><g fill="#fff8f3"><path clip-rule="evenodd" d="m10 18.5c4.6944 0 8.5-3.8056 8.5-8.5 0-4.69442-3.8056-8.5-8.5-8.5-4.69442 0-8.5 3.80558-8.5 8.5 0 4.6944 3.80558 8.5 8.5 8.5zm0 1.5c5.5228 0 10-4.4772 10-10 0-5.52285-4.4772-10-10-10-5.52285 0-10 4.47715-10 10 0 5.5228 4.47715 10 10 10z" fill-rule="evenodd"/><path clip-rule="evenodd" d="m10 9.25c.4142 0 .75.33579.75.75v4c0 .4142-.3358.75-.75.75-.41421 0-.75-.3358-.75-.75v-4c0-.41421.33579-.75.75-.75z" fill-rule="evenodd"/><path d="m11 6c0 .55228-.4477 1-1 1-.55228 0-1-.44772-1-1s.44772-1 1-1c.5523 0 1 .44772 1 1z"/></g></svg>

<svg width="20" height="20" viewBox="0 0 20 20" fill="none" xmlns="http://www.w3.org/2000/svg">
<path fill-rule="evenodd" clip-rule="evenodd" d="M10 18.5C14.6944 18.5 18.5 14.6944 18.5 10C18.5 5.30558 14.6944 1.5 10 1.5C5.30558 1.5 1.5 5.30558 1.5 10C1.5 14.6944 5.30558 18.5 10 18.5ZM10 20C15.5228 20 20 15.5228 20 10C20 4.47715 15.5228 0 10 0C4.47715 0 0 4.47715 0 10C0 15.5228 4.47715 20 10 20Z" fill="#FFF8F3"/>
<path fill-rule="evenodd" clip-rule="evenodd" d="M10 9.25C10.4142 9.25 10.75 9.58579 10.75 10V14C10.75 14.4142 10.4142 14.75 10 14.75C9.58579 14.75 9.25 14.4142 9.25 14V10C9.25 9.58579 9.58579 9.25 10 9.25Z" fill="#FFF8F3"/>
<path d="M11 6C11 6.55228 10.5523 7 10 7C9.44772 7 9 6.55228 9 6C9 5.44772 9.44772 5 10 5C10.5523 5 11 5.44772 11 6Z" fill="#FFF8F3"/>
</svg>
